X:1
T:Standchen D. 957 No.7
T:Ständchen (Serenade)
T:D. 957 No. 4
T:Franz Schubert Arr. Franz Liszt S. 560 No. 7
C:Franz Schubert
%%score { ( 1 3 5 ) | ( 2 4 ) }
L:1/8
Q:1/4=68
M:3/4
K:F
V:1 treble nm="Grand Piano" snm="Pno."
V:3 treble 
V:5 treble 
V:2 bass 
V:4 bass 
V:1
"^Tempo rubato."!pp! z .[A,D].[DF].[A,D].[DF].[A,D] | z .[B,D].[DF].[B,D].[DF].[B,D] | %2
 z .[B,D].[DE].[B,D].[DE].[B,D] | z .[A,^C].[CE].[A,C].[CE].[A,C] | %4
!mp!"^espressivo il canto" (3(ABA) !>!d3 A | (3(GAG) !>!d3 G | !>!A3 G (3(GFE) | F6 | %8
 [A^ca]3 [eg] (3([eg][df][ce]) | [df]6 | (3(AB)A f3 A | (3(GA)G !arpeggio!e3 d | !>!c3 B (3(BAG) | %13
 A4 z!pp! [Fd] | ([Ec]3 [GB]) (3([GB][FA][EG]) | [FA]6 |!mf! (A>^c) !>!f3 e | d>A F3 D | %18
 (3(BAB) !>!d3 B | A6 | (3(G^FG)!>(! B3!>)! E | =F6 |!mf!!<(! (A>^c)!<)!!>(! f3!>)! e | d>A ^F3 D | %24
!<(! (3(=B^AB)!<)!!>(! d3!>)! B | =A6 |!f! (3(e^de) g3 ^c | =d6 | %28
!mf!"_espressivo" [G_B]4 !>![Bd]>[GB] | [^FA]3 (.[FA].[FA].[FA]) | [GA]3 (.[^CA].[EA].[GA]) | %31
 [^FA]4!pp! [FA]2 | [G=B]4 !>![Bd]>[GB] | [^FA]3 (.[FA].[FA].[FA]) | [GA]3 (.[^CA].[EA].[GA]) | %35
"_rall." [^FA]6[Q:1/4=66]"^66"[Q:1/4=64]"^64"[Q:1/4=62]"^62" | %36
"_smorz." [^FA]6[Q:1/4=60]"^60"[Q:1/4=57]"^57"[Q:1/4=54]"^54"[Q:1/4=50]"^50" | %37
[K:bass]"^espressivo il canto"[Q:1/4=68]"^68"!mp! (3(!^!A,B,)A, D3 A, | (3(!^!G,A,)G, D3 G, | %39
 (!>!A,3 G,) (3(G,F,E,) | F,6 |[K:treble]!pp! ([A^ca]3 [eg]) (3([eg][df][ce]) | [df]6 | %43
[K:bass]!mp! (3(A,B,A,) (F3 A,) | (3(G,A,G,) (E3 D) | !>!C3 B, (3(B,A,G,) | %46
 A,2 z2 z[K:treble] ([Fd] |!pp! [Ec]3) [GB] (3([GB][FA][EG]) | [FA]6 | %49
[K:bass]!mf!!<(! (A,>^C)!<)! !>!F3 E | (D>A,) !>!F,3 D, | (3(B,A,B,) D3 B, | A,4 z2[K:treble] | %53
!<(! (3([B,G][A,^F][B,G])!<)!!>(! [DB]3!>)! [B,G] | [A,=F]6 |[K:bass] (A,>^C) !>!F3 E | %56
 (D>A,) !>!^F,3 D, | (3(=B,^A,B,) !>!D3 B, | =A,6 | %59
[K:treble]!f! (3([Geg][^F^d^f][Geg]) [=Bg=b]3 [G^cg] |"_marcato" [^F=d^f]4 [FA]2 | %61
 [G_B]2-!<(! (9:8:9[GB]/!p![Bd]/[dg]/[gb]/!<)!!mf![bd']/!>(![gb]/[dg]/[Bd]/[GB]/!>)! | %62
 [^FA]3 [FA] (3([FA][FA]3/2[FA]/) | [GA]3 .[^CA].[EA]>.[GA] | [^FA]4!p! [FA]2 | %65
"_dolciss." [G=B]2- (9:8:9[GB]/[Bd]/[dg]/[g=b]/[bd']/[gb]/[dg]/[Bd]/[GB]/ | %66
 [^FA]3 [FA] (3([FA][FA]3/2[FA]/) | [GA]3 .[^CA].[EA]>.[GA] | %68
"_rall." [^FA]6[Q:1/4=66]"^66"[Q:1/4=64]"^64"[Q:1/4=62]"^62" | %69
"_smorz." [^FA]6[Q:1/4=56]"^56"[Q:1/4=50]"^50" || %70
!mf![Q:1/4=72]"^72" (3(A[Q:1/4=64]"^64"{/c}B[Q:1/4=68]"^68"A)[Q:1/4=72]"^72""_marc."!pp! !>!d7/2[Q:1/4=64][Q:1/4=68]!mf! A/ | %71
[Q:1/4=72]"^72" (3(G[Q:1/4=64]"^64"{/B}A[Q:1/4=68]"^68"G)[Q:1/4=72]"^72"!pp! !>!d7/2[Q:1/4=64][Q:1/4=68]!mf! G/ | %72
 z3/2 g/ a4- | a>g (3(gfe) f2 | %74
!mf![Q:1/4=72]"^72" (3(A[Q:1/4=64]"^64"{/c}B[Q:1/4=68]"^68"A)[Q:1/4=72]"^72"!pp! !>!d7/2[Q:1/4=64][Q:1/4=68]!mf! A/ | %75
[Q:1/4=72]"^72" (3G[Q:1/4=64]"^64"{/B}A[Q:1/4=68]"^68"G[Q:1/4=72]"^72"!pp! !>!d7/2[Q:1/4=64][Q:1/4=68]!f! d/ | %76
 e'>!pp!d' c'4- | c'>!pp!b (3bag a2 |!f!!<(! (A>^c)!<)!"_sempre a due""^" f3 e | %79
 d>[I:staff +1]A F3[I:staff -1] D |!<(! (3(BAB) d7/2 [DFB]/!<)! |!mf! z3/2!p! [dfb]/ [cfa]2 z2 | %82
!<(! [B,E]2 (3(g[A^f][Bg]) [db] z!<)! |!mf! z3/2!pp! [Bg]/ [Af]2 z2 |!mf!!<(! A>^c!<)! !>!f3 e | %85
 d>[I:staff +1]A ^F3[I:staff -1] D |"_dol." (3(=B^AB) d7/2 [GB]/ | z3/2!pp! [g=b]/ [^f=a]4 | %88
[Q:1/4=72]"_energico" (3([Ge][^F^d][Ge]) (3([ge'][^f^d'][Q:1/4=65]"^65"[ge']) [=bg']>!fermata![^ce^c'] | %89
[Q:1/4=72]"^72" !^![=d^f=d']6 | %90
"_con  agitazione"[Q:1/4=80]"^animato il tempo"!<(! [A,A]>[A,A] [^C^c]>[Cc] [Ee]>[Ee]!<)! | %91
 ([Dd]2 [^C^c]2) z2 |!<(! ([A,A]3 [EG^c] [EGe]>!fermata![EGd])!<)! | %93
{/xx} [EG^c][K:bass] !>!A,2 ^CE!fermata!D |[K:treble]!ff!{/xxx} (^f3 e) (3ed^c | %95
"_poco a poco riten." [D^F=B]>[Q:1/4=78]"^78"[DF^c][Q:1/4=76]"^76" (!>![DFd]2[Q:1/4=74]"^74" [DFB]) !fermata!z | %96
 !arpeggio!!wedge![G=Be=b-]>[Q:1/4=72]"^72"!wedge![^c^c'] ([dd']2 [Bb]) !fermata!z | %97
[Q:1/4=80][Q:1/4=70]"^70"!f! !arpeggio!!wedge![^F=Bd=b-]>!wedge![^c^c'][Q:1/4=68]"^68" ([dd']2 [Bb]) z | %98
"_dol." (3(=B^AB) d7/2 [GB]/ | z3/2!pp! [g=b]/ [^f=a]4 | %100
[Q:1/4=75]"_energico" (3([Ge][^F^d][Ge]) (3([ge'][^f^d'][Q:1/4=64]"^64"[ge']) [=bg']>[^ce^c'] | %101
!>(! !^![=d^f=d']6[Q:1/4=70]"^70"!>)! | %102
[Q:1/4=100]"^100""^dim." !arpeggio![=FAd=fad']6[Q:1/4=58][Q:1/4=45]"^45"[Q:1/4=60]"^60"[Q:1/4=54]"^54" | %103
 z[Q:1/4=62]"^62" (5:4:5D/4E/4B/4d/4-e/4- [deb]4[Q:1/4=57]"^57" | %104
 z (5:4:5^C/4E/4A/4-^c/4-e/4- [Acea]4-[Q:1/4=54]"^54" | %105
 (13:12:23!fermata![Acea]"_dolciss."[Q:1/4=58]"^58"!8va(! ^g/4a/4[Q:1/4=61]"^61"^a/4=b/4[Q:1/4=64]"^64"^b/4^c'/4[Q:1/4=66]"^66"d'/4^d'/4"_à l'Octava per i Cembali à 7 octavi"e'/4^e'/4^f'/4=g'/4^g'/4[Q:1/4=62]"^62"=a'/4^a'/4[Q:1/4=56]"^56"=b'/4^b'/4^c''/4[Q:1/4=50]"^50"=d''/4[Q:1/4=46]"^46"^d''/4[Q:1/4=40]"^40"=e''/4[Q:1/4=18]"^18"^e''/4 | %106
[Q:1/4=64]"^64"!p! [=d''^f'']!8va)! z z2"_dol." [^FA]2 | ([G_B]4 [Bd]>[GB]) | %108
 [^FA]3 (.[FA].[FA].[FA]) | [GA]3 (.[^CA].[EA].[GA]) | [^FA]6 | %111
"_smorz." [A,^FA]6[Q:1/4=60]"^60"[Q:1/4=56]"^56"[Q:1/4=50]"^50"[Q:1/4=36]"^36" | %112
[Q:1/4=60]"^60"!ppp! (3z (^F,A"_quasi niente" (3^Fa^f (3a'fa | %113
 (3^FA^F,[Q:1/4=56]"^56" (3A[Q:1/4=52]"^52"F,[Q:1/4=46]"^46"A F,[Q:1/4=40]"^40"A) | %114
[Q:1/4=252]"^252"!p! x/- x/- x/- x/-[Q:1/4=36]"^36" !arpeggio![^F,A,^FA]6 |] %115
V:2
!ped! [D,,D,]6!ped-up! |!ped! [B,,,B,,]6!ped-up! |!ped! [G,,,G,,]6!ped-up! | %3
!ped! [A,,,A,,]6!ped-up! |!p!!ped! z .[F,A,].[A,D].[F,A,].[A,D].[F,A,]!ped-up! | %5
!ped! z .[E,G,].[G,D].[E,G,].[G,D].[E,G,]!ped-up! | %6
!ped! z .[E,G,].[G,A,].[E,G,] [G,A,E][E,G,^C]!ped-up! |!ped! z F,A,F,A,F,!ped-up! | %8
!ped! !arpeggio![A,,,A,,] .[A,^CE].[CEG].[A,CE].[CEG].[A,CE]!ped-up! | %9
!ped! !arpeggio![D,,D,] .[A,D].[DF].[A,D].[DF].[A,D]!ped-up! | %10
!ped! z [A,D][DF][A,D][DF][A,D]!ped-up! |!ped! z [G,D][DE][G,D][DE][G,D]!ped-up! | %12
!ped! z [G,B,][B,C][G,B,] [B,CG][G,B,E]!ped-up! |!ped! z .F,.A,.F, A,!ped-up! z | %14
!ped! C,, .[C,G,].[G,B,].[C,G,].[G,B,].[C,G,]!ped-up! | %15
!ped! F,, .[C,F,].[F,A,].[C,F,].[F,A,].[C,F,]!ped-up! | %16
!p!!ped! z [G,A,][^CG][G,A,][CG][G,A,]!ped-up! |!ped! z [F,A,][A,D][F,A,][A,D][F,A,]!ped-up! | %18
!ped! z .[F,B,].[B,D].[F,B,].[B,D].[F,B,]!ped-up! |!ped! z .F,.A,.F,.A,.F,!ped-up! | %20
!ped! [C,,C,] .[G,C].[CE].[G,C].[CE].[G,C]!ped-up! | %21
!ped! [F,,,F,,] .[F,A,C].[A,CF].[F,A,C].[A,CF].[F,A,C]!ped-up! | %22
!p!!ped! z .[G,A,].[^CG].[G,A,].[CG].[G,A,]!ped-up! | %23
!ped! z .[^F,A,].[A,D].[D,F,].[A,D].[D,F,A,]!ped-up! | %24
!ped! z .[G,=B,].[B,D].[G,B,].[B,D].[G,B,]!ped-up! | %25
!ped! z .[^F,A,].[A,D].[F,A,].[A,D].[F,A,]!ped-up! | %26
!mf!!ped! [A,,,A,,] .[E,A,^C].[A,CG].[E,A,C].[A,CG]!ped!.[E,A,C]!ped-up! | %27
!ped! D,,!p! .[D,^F,A,].[F,A,D].[D,F,A,].[F,A,D].[D,F,A,]!ped-up! | %28
!ped! .D,, .[D,G,_B,].[G,B,D].[D,G,B,].[G,B,D].[D,G,B,]!ped-up! | %29
!ped! D,, .[D,^F,A,].[F,A,D].[D,F,A,].[F,A,D].[D,F,A,]!ped-up! | %30
!ped! [A,,,A,,] .[E,A,].[A,^C].[E,A,].[A,C].[E,A,]!ped-up! | %31
!pp!!ped! D,, .[D,^F,A,].[F,A,D].[D,F,A,].[F,A,D].[D,F,A,]!ped-up! | %32
!ped! .D,, .[D,G,=B,].[G,B,D].[D,G,B,].[G,B,D].[D,G,B,]!ped-up! | %33
!ped! D,, .[D,^F,A,].[F,A,D].[D,F,A,].[F,A,D].[D,F,A,]!ped-up! | %34
!ped! [A,,,A,,] .[E,A,].[A,^C].[E,A,].[A,C].[E,A,]!ped-up! | %35
!ped! D,, .[^F,A,].[A,D].[F,A,].[A,D].[F,A,]!ped-up! | %36
!ped! D,, .[^F,A,].[A,D].[F,A,].[A,D].[F,A,]!ped-up! | %37
!ped! !wedge!D,,!p! .=F,.F.[F,A,].[DF].F,!ped-up! |!ped! !wedge!B,, .E,.E.[E,G,].[DE].E,!ped-up! | %39
!ped! !wedge!A,, .[E,^C].[CE].[E,C].[A,CE].[G,A,C]!ped-up! | %40
!ped! !wedge!D,, .[A,D].[A,DF].[F,A,D].[A,DF].[F,A,D]!ped-up! | %41
!pp!!ped! !arpeggio![A,,,A,,] .[A,^CE].[CEG].[A,CE].[CEG]!ped!.[A,CE]!ped-up! | %42
!ped! [D,,D,] .[F,A,D].[A,DF].[F,A,D].[A,DF].[F,A,D]!ped-up! | %43
!p!!ped! D, .F,.D.[F,A,].[DF].F,!ped-up! |!ped! B,, .E,.D.[E,G,].[DE].E,!ped-up! | %45
!ped! C, .[E,G,].[G,E].[E,G,].[G,E].[E,B,C]!ped-up! | %46
!ped! F,, .[F,A,C].[A,CF].[F,A,C].[A,CF][_A,=B,]!ped-up! | %47
!ped! C,, .[C,G,].[G,_B,].[C,G,].[G,B,].[C,G,]!ped-up! | %48
!ped! F,, .[C,F,].[F,=A,].[C,F,].[F,A,].[C,F,]!ped-up! | %49
!p!!ped! A,, .[^C,G,A,].[G,A,^C].[C,G,A,].[G,A,C].[C,G,A,]!ped-up! | %50
!ped! D,, .[D,F,].[A,D].[D,A,].[A,D].[F,A,]!ped-up! | %51
!ped! B,,, .[F,D].[B,F].[F,B,].[B,F].[F,D]!ped-up! | %52
!ped! F,, .[F,A,C].[A,CF].[F,A,C].[A,CF].[F,A,C]!ped-up! | %53
!ped! [C,,C,] .[E,C]!ped-up!!ped!.[G,E].[E,C].[G,E].[E,C]!ped-up! | %54
!ped! [F,,,F,,] .[F,A,C].[A,CF].[F,A,C].[A,CF].[F,A,C]!ped-up! | %55
!ped! [A,,,A,,] .[^C,G,A,].[G,A,^C].[C,G,A,].[G,A,C].[C,G,A,]!ped-up! | %56
!ped! [D,,D,] .[D,^F,].[A,D].[D,A,].[A,D].[F,A,]!ped-up! | %57
!ped! [G,,,G,,] .[G,D].[=B,G].[G,D].[B,G].[G,D]!ped-up! | %58
!ped! [D,,D,] .[^F,D].[D^F].[F,D].[DF].[F,D]!ped-up! | %59
!mf!!ped! [A,,,A,,] .[E,A,^C].[A,CG].[E,A,C].[A,CG].[E,A,C]!ped-up! | %60
!ped! D,,!mp! .[D,^F,A,].[F,A,D].[D,F,A,].[F,A,D].[D,F,A,]!ped-up! | %61
!p!!ped! .D,, .[D,G,_B,].[G,B,D].[D,G,B,].[G,B,D].[D,G,B,]!ped-up! | %62
!ped! .D,, .[D,^F,A,].[F,A,D].[D,F,A,].[F,A,D].[D,F,A,] |!ped-up! %63
!ped! [A,,,A,,] .[E,A,].[A,^C].[E,A,].[A,C].[E,A,]!ped-up! | %64
!ped! D,,!p! .[D,^F,A,].[F,A,D].[D,F,A,].[F,A,D].[D,F,A,]!ped-up! | %65
!ped! .D,, .[D,G,=B,].[G,B,D].[D,G,B,].[G,B,D].[D,G,B,]!ped-up! | %66
!ped! .D,, .[D,^F,A,].[F,A,D].[D,F,A,].[F,A,D].[D,F,A,] |!ped-up! %67
!ped! [A,,,A,,] .[E,A,].[A,^C].[E,A,].[A,C].[E,A,]!ped-up! | %68
!ped! .D,, .[^F,A,].[A,D].[F,A,].[A,D].[F,A,]!ped-up! | %69
!ped! .D,, .[^F,A,].[A,D].[F,A,].[A,D].[F,A,]!ped-up! || %70
!p!!ped! D, .[A,D].[D=F].[A,D].[DF].[A,D]!ped-up! |!ped! B,, .[G,D].[DE].[G,D].[DE].[G,D]!ped-up! | %72
!ped! .A,, .[E,A,^C].[A,CE].[E,A,C].[A,CE].[E,A,C]!ped-up! | %73
!ped! .D,, .[F,A,].[A,D].[F,A,].[A,D].[F,A,]!ped-up! | %74
!ped! .D, .[A,D].[DF].[A,D].[DF].[A,D]!ped-up! |!ped! .B,, .[G,D].[DE].[G,D].[DE].[G,D]!ped-up! | %76
!ped! .C, .[G,B,C].[B,CE].[G,B,C].[B,CE].[G,B,C]!ped-up! | %77
!ped! .F,, .[F,A,C].[A,CF].[F,A,C].[A,CF].[F,A,C]!ped-up! | %78
!ped! A,,[K:treble] .[A,^CG].[CGA].[A,CG].[CGA].[A,CG]!ped-up! | %79
[K:bass]!ped! D, .[A,D].D.[A,D].[DF].[A,D]!ped-up! | %80
!ped! B,, .[F,B,D].[B,DF].[F,B,D].[B,DF].[F,B,D]!ped-up! | %81
!ped! F,,!p! .[F,A,C].[A,CF].[F,A,C].[A,CF].[F,A,C]!ped-up! | %82
!ped! [C,,C,] .[E,G,C]!ped-up!!ped!.[G,CE].[E,G,C].[G,CE].[E,G,C]!ped-up! | %83
!ped! F,,!p! .[F,A,C].[A,CF].[F,A,C].[A,CF].[F,A,C]!ped-up! | %84
!mf!!ped! A,,[K:treble] .[A,^CG].[CGA].[A,CG].[CGA].[A,CG]!ped-up! | %85
[K:bass]!ped! D, [A,D]D[A,D][D^F][^F,A,]!ped-up! | %86
!ped! G,, .[G,=B,D]!ped-up!!ped!.[B,DG].[G,B,D].[B,DG].[G,B,D]!ped-up! | %87
!ped! D,, .[^F,A,D].[A,D^F].[F,A,D].[A,DF].[F,A,D]!ped-up! | %88
!f!!ped! [A,,,A,,] .[E,A,^C]!ped-up!!ped!.[A,CG].[E,A,C].[A,CG].[E,A,C]!ped-up! | %89
!ped! [D,,D,] .[^F,A,D].[A,D^F].[F,A,D].[A,DF].[F,A,D]!ped-up! | %90
!ped! [A,,,A,,] .[^C,E,G,].[A,,C,E,].[C,E,G,].[B,,C,E,].[C,E,G,]!ped-up! | %91
!<(!!ped! A,,>A,, ^C,>C, E,>E,!ped-up!!<)! |!f!!ped! [D,E,G,] E,2 (.[E,G,^C].B,,.[E,G,C])!ped-up! | %93
!ped! !arpeggio!.[A,,E,G,^C]!f! (!>!A,,2 ^C,E,D,)!ped-up! | %94
!ped!{/!fermata!x-!fermata!x-!fermata!x-} !wedge!!fermata![^A,,^C,^F,^C] !wedge!^A,,, .[A,,C,F,].[F,C].[A,,C,F,].[F,C]!ped-up! | %95
!ped! !wedge![=B,,^F,=B,] !wedge!=B,,, .[B,,D,F,].[D,F,B,].[B,,D,F,].[D,F,B,]!ped-up! | %96
!ped!{/xx} !wedge!=B,,, .[E,G,=B,].[G,B,G].[E,G,B,].[G,B,G].[E,G,B,]!ped-up! | %97
!ped!{/xx} !wedge!=B,,,!mf! .[^F,=B,].[F,B,^F].[D,F,B,].[F,B,F].[D,F,B,]!ped-up! | %98
!p!!ped! G,, [G,=B,D][B,DG][G,B,D][B,DG][G,B,D]!ped-up! | %99
!ped! D,, .[^F,A,D].[A,D^F].[F,A,D].[A,DF].[F,A,D]!ped-up! | %100
!mf!!ped! [A,,,A,,] [E,A,^C][A,CG][E,A,C][A,CG]!fermata![E,A,C]!ped-up! | %101
!ped! D,, z!f! !arpeggio!!fermata![D,A,D^F-][^F,A,D][A,DF][F,A,D]!ped-up! | %102
!p!!ped! D,, z !arpeggio![D,A,D=F-][F,A,D][A,DF][F,A,D]!ped-up! | %103
!p!!ped! G,,, z !arpeggio![G,,D,E,B,][G,,D,E,][D,E,B,][G,,D,E,]!ped-up! | %104
!ped! A,,, z !arpeggio![A,,E,G,^C][A,,E,G,][E,G,C][A,,E,G,]!ped-up! | z6 | %106
!p!!ped! D,, [D,^F,][F,A,][D,F,][F,A,][D,F,]!ped-up! | %107
!ped! D,, [D,G,][G,B,][D,G,][G,B,][D,G,]!ped-up! | %108
!ped! D,, [D,^F,][F,A,][D,F,][F,A,][D,F,]!ped-up! | %109
!ped! A,,, [A,,E,][E,G,][A,,E,][E,G,][A,,E,]!ped-up! | %110
!ped! D,, [A,,D,][D,^F,][A,,D,][D,F,][A,,D,]!ped-up! | %111
!ped! D,, [A,,D,][D,^F,][A,,D,][D,F,][A,,D,]!ped-up! | %112
!ped! (3:2:2(D,,2 A,, (3D,A,D[K:treble] (3AdA!ped-up! |[K:bass] (3DA,D, (3A,,D,,A,, D,,A,,) | %114
!pp! (3x- x- x- !arpeggio![D,,A,,D,]6 |] %115
V:3
 x6 | x6 | x6 | x6 | z .D.F.D.F.D | z .D.E.D.E.D | z .[A,^C].[CE].[A,C] CA, | %7
 z [A,D][DF][A,D][DF][A,D] | x6 | x6 | z F!arpeggio!AFAF | z EGEGE | z [CE][EG][CE] EC | %13
 z [A,C][CF][A,C][CF] z | x6 | x6 | z .^C.A.C.A.C | z DxA, z A, | z .D.F.D.F.D | %19
 z .[A,C].[CF].[A,C].[CF].[A,C] | (3BAB d3 B | A6 | z .^C.A.C.A.C | z DxA, z2 | z .D.G.D.G.D | %25
 z .D.^F.D.F.D | (3[Gg][^F^f][Gg] [=B=b]3 [Gg] | [^F^f]6 | x6 | x6 | x6 | x6 | x6 | x6 | x6 | x6 | %36
 x6 |[K:bass] x6 | x6 | x6 | x6 |[K:treble] x6 | x6 |[K:bass] x6 | x6 | x6 | x5[K:treble] x | x6 | %48
 x6 |[K:bass] x6 | x5 (2:1:3x B,/C/ | x6 | x5 (2:1:3x[K:treble] G/A/ | E2 x4 | x6 |[K:bass] x6 | %56
 x5 (2:1:3x =B,/^C/ | x6 | x6 |[K:treble] x6 | x6 | x6 | x6 | x6 | x6 | x6 | x6 | x6 | x6 | x6 || %70
 x2 (3(a"^64"{/c'}b"^68"a) d'2 | x2 (3(g"^64"{/b}a"^68"g) d'2 | A7/2 G/ (3!>!GFE | F6 | %74
 x2 (3(a"^64"{/c'}b"^68"a) f'2 | x2 (3(g"^64"{/b}a"^68"g) e'2- | c7/2!f! B/!>(! (3!>!BAG!>)! | A6 | %78
 x2 a>^c' f'2- | f'e' d'>a f2 | x2 (3(bab) d'2 | [CFA]2 x7/2!mf! x/4 x/4 | (3G^FG B7/2 [B,G]/ | %83
 [A,=F]2 x4 | x2 a>^c' f'2- | f'e' d'>a ^f2 | =B/^c/ x (3([g=b][^f^a][gb]) [bd']2 | %87
 [^F=A]2 x7/2 (3:1:3x/ e/!f!^f/ | x3/2 (3:1:3=B/g/e'/- x4 | x6 | x [^CE] x [EG] x G | %91
 [EG] [EG]2 [EG]2 [G,E] | [DE] !>![DE]^C x3 | x/ !fermata!x/[K:bass] [E,G,][E,G,][E,G,]G,[E,G,] | %94
[K:treble]{/xxx} [^F^c]4 [EF]2 | x6 | x3/2 x3 x3/2 | x3/2 x2 x2!f! x/4 x/4 | %98
 =B/^c/ x (3([g=b][^f^a][gb]) [bd']2 | [^F=A]2 x7/2 (3:1:3x/ e/!f!^f/ | x3/2 (3:1:3=B/g/e'/- x4 | %101
 x6 | x4"^58" (.D>.D) | B,4 x2 | A,4 x2 | x37/40!8va(! x203/40 | x!8va)! x5 | x6 | x6 | x6 | x6 | %111
 x6 | x6 | x6 | x8 |] %115
V:4
 x6 | x6 | x6 | x6 | [D,,D,]6 | [B,,,B,,]6 | [A,,,A,,]6 | [D,,D,]6 | x6 | x6 | [D,,D,]6 | %11
 [B,,,B,,]6 | [C,,C,]6 | [F,,,F,,]4 z2 | x6 | x6 | [A,,,A,,]6 | [D,,D,]6 | [B,,,B,,]6 | %19
 [F,,,F,,]5 x | x6 | x6 | [A,,,A,,]6 | [D,,D,]6 | [G,,,G,,]6 | [D,,D,]5 x | x6 | x6 | x6 | x6 | %30
 x6 | x6 | x6 | x6 | x6 | x6 | x6 | x6 | x6 | x6 | x6 | x6 | x6 | x6 | x6 | x6 | x6 | x6 | x6 | %49
 x6 | x6 | x6 | x6 | x6 | x6 | x6 | x6 | x6 | x6 | x6 | x6 | x6 | x6 | x6 | x6 | x6 | x6 | x6 | %68
 x6 | x6 || x6 | x6 | x6 | x6 | x6 | x6 | x6 | x6 | x[K:treble] x5 |[K:bass] x6 | x6 | x6 | x6 | %83
 x6 | x[K:treble] x5 |[K:bass] x6 | x6 | x6 | x6 | x6 | x6 | A,,,2 x2 B,,2 | A,, !>!D,^C, x3 | %93
 x A,,,3 B,,,2 | x6 | x6 | x6 | x6 | x6 | x6 | x6 | x3 x3/2 x3/2 | x3 x3/2 x3/2 | %103
 x (5:4:2x3/4 !arpeggio!x/ x4 | x (5:4:2x3/4 !arpeggio!x/ x4 | x6 | x6 | x6 | x6 | x6 | x6 | x6 | %112
 x4[K:treble] x2 |[K:bass] x6 | x8 |] %115
V:5
 x6 | x6 | x6 | x6 | x6 | x6 | x6 | x6 | x6 | x6 | x7/4 x/4- x4 | x7/4 x/4- x4 | x6 | x6 | x6 | %15
 x6 | x6 | x5 (2:1:3x!pp! B/c/ | x6 | x5 (2:1:3x B/c/ | x6 | x6 | x6 | x5 (2:1:3x =B/^c/ | x6 | %25
 x6 | x6 | x6 | x6 | x6 | x6 | x6 | x6 | x6 | x6 | x6 | x6 |[K:bass] x6 | x6 | x6 | x6 | %41
[K:treble] x6 | x6 |[K:bass] x6 | x6 | x6 | x5[K:treble] x | x6 | x6 |[K:bass] x6 | x6 | x6 | %52
 x11/2[K:treble] x/ | x6 | x6 |[K:bass] x6 | x6 | x6 | x6 |[K:treble] x6 | x6 | x6 | x6 | x6 | x6 | %65
 x6 | x6 | x6 | x6 | x6 || x6 | x6 | x6 | x6 | x6 | x6 | x6 | x6 | x6 | x5 (2:1:3x B/c/ | %80
 x3/2 (3:1:3x/ b/c'/ x4 | x6 | G/A/ x/ (3:1:3x/ g/a/ x4 | x6 | x6 | x11/2 x/4 x/4 | %86
 x3/2 (3:1:3x/ =b/^c'/ x4 | x6 | x6 | x6 | x6 | x6 | x6 | x[K:bass] x5 |[K:treble] x6 | x6 | x6 | %97
 x6 | x3/2 (3:1:3x/ =b/^c'/ x4 | x6 | x6 | x6 | x6 | x6 | x6 | x37/40!8va(! x203/40 | x!8va)! x5 | %107
 x6 | x6 | x6 | x6 | x6 | x6 | x6 | x8 |] %115

